resc/svg/book.svg

<svg width="359" height="277" viewBox="0 0 359 277" fill="none" xmlns="http://www.w3.org/2000/svg">
<g style="mix-blend-mode:overlay">
<path fill-rule="evenodd" clip-rule="evenodd" d="M333.541 277H251.734C249.011 250.604 223.418 227.244 200.427 208.431C196.433 205.165 194.458 201.379 194.458 197.951C194.458 191.742 200.666 186.652 210.987 187.864C220.89 189.029 231.54 196.647 235.369 199.786V140.058C235.369 132.822 242.893 126.958 251.734 126.958C260.574 126.958 268.098 132.822 268.098 140.058V169.963C268.098 175.202 274.755 175.883 275.607 170.644C277.372 159.91 296.22 158.479 297.656 173.321C298 176.968 303.579 177.707 304.746 173.494C307.409 163.834 325.194 163.742 327.303 178.573C327.842 182.451 333.81 183.236 334.229 178.803C334.648 174.325 336.548 172.559 339.21 172.559C348.185 172.559 358.088 186.063 358.088 202.072C358.088 230.833 333.541 230.903 333.541 277ZM186.979 27.8616C230.852 9.19871 294.215 1.5235 359 0V157.475L296.504 143.867C296.504 142.193 296.504 138.2 296.295 136.538C294.201 120.16 276.924 105.399 251.734 105.029C225.871 105.583 208.863 120.068 206.993 138.292C206.919 140.704 206.949 163.292 206.949 165.785C190.509 165.785 173.711 173.898 167.952 188.118C164.811 195.943 165.649 204.438 169.837 211.94C174.339 219.996 180.233 223.712 187.877 230.268C178.363 231.572 168.506 230.637 159.561 227.486C116.6 212.309 58.891 205.846 0 204.461V0C64.7845 1.5235 128.163 9.19871 172.021 27.8616V150.042L186.979 144.467V27.8616ZM44.875 146.937C76.0781 150.538 111.455 158.756 134.625 166.246V153.966C109.674 146.787 76.5717 138.789 44.875 135.199V146.937ZM44.875 123.496C76.0781 127.097 111.455 135.303 134.625 142.794V130.525C109.674 123.346 76.5717 115.336 44.875 111.758V123.496ZM44.875 100.055C76.0781 103.644 111.455 111.862 134.625 119.364V107.084C109.674 99.9047 76.5717 91.8948 44.875 88.3168V100.055ZM44.875 76.6136C76.0781 80.203 111.455 88.4207 134.625 95.9113V83.6309C109.674 76.452 76.5717 68.4536 44.875 64.8642V76.6136ZM314.125 64.8642C282.428 68.4536 249.326 76.452 224.375 83.6309V95.9113C247.545 88.4207 282.922 80.203 314.125 76.6136V64.8642ZM44.875 41.3076C76.5717 44.8855 109.674 52.8955 134.625 60.0744V72.3547C111.455 64.8526 76.0781 56.6465 44.875 53.0455V41.3076ZM314.125 53.0455C282.922 56.6465 247.545 64.8526 224.375 72.3547V60.0744C249.326 52.8955 282.428 44.8855 314.125 41.3076V53.0455Z" fill="#A3A3A3"/>
</g>
</svg>

<svg width="359" height="277" fill="none" xmlns="http://www.w3.org/2000/svg"><path fill-rule="evenodd" clip-rule="evenodd" d="M333.541 277h-81.807c-2.723-26.396-28.316-49.756-51.307-68.569-3.994-3.266-5.969-7.052-5.969-10.48 0-6.209 6.208-11.299 16.529-10.087 9.903 1.165 20.553 8.783 24.382 11.922v-59.728c0-7.236 7.524-13.1 16.365-13.1 8.84 0 16.364 5.864 16.364 13.1v29.905c0 5.239 6.657 5.92 7.509.681 1.765-10.734 20.613-12.165 22.049 2.677.344 3.647 5.923 4.386 7.09.173 2.663-9.66 20.448-9.752 22.557 5.079.539 3.878 6.507 4.663 6.926.23.419-4.478 2.319-6.244 4.981-6.244 8.975 0 18.878 13.504 18.878 29.513 0 28.761-24.547 28.831-24.547 74.928zM186.979 27.862C230.852 9.199 294.215 1.524 359 0v157.475l-62.496-13.608c0-1.674 0-5.667-.209-7.329-2.094-16.378-19.371-31.139-44.561-31.509-25.863.554-42.871 15.039-44.741 33.263-.074 2.412-.044 25-.044 27.493-16.44 0-33.238 8.113-38.997 22.333-3.141 7.825-2.303 16.32 1.885 23.822 4.502 8.056 10.396 11.772 18.04 18.328-9.514 1.304-19.371.369-28.316-2.782C116.6 212.309 58.891 205.846 0 204.461V0c64.784 1.524 128.163 9.199 172.021 27.862v122.18l14.958-5.575V27.862zM44.875 146.937c31.203 3.601 66.58 11.819 89.75 19.309v-12.28c-24.951-7.179-58.053-15.177-89.75-18.767v11.738zm0-23.441c31.203 3.601 66.58 11.807 89.75 19.298v-12.269c-24.951-7.179-58.053-15.189-89.75-18.767v11.738zm0-23.441c31.203 3.589 66.58 11.807 89.75 19.309v-12.28c-24.951-7.18-58.053-15.19-89.75-18.767v11.738zm0-23.441c31.203 3.589 66.58 11.807 89.75 19.297v-12.28c-24.951-7.179-58.053-15.177-89.75-18.767v11.75zm269.25-11.75c-31.697 3.59-64.799 11.588-89.75 18.767v12.28c23.17-7.49 58.547-15.708 89.75-19.297v-11.75zM44.875 41.308c31.697 3.578 64.799 11.587 89.75 18.766v12.28c-23.17-7.501-58.547-15.707-89.75-19.309V41.308zm269.25 11.737c-31.203 3.602-66.58 11.808-89.75 19.31v-12.28c24.951-7.18 58.053-15.19 89.75-18.767v11.737z" fill="#A3A3A3"/></svg>
